X: 212
T:Soldiers Cloak. JC.216
M:6/8
L:1/8
Q:110
S:John Clare,Poet,Helpstone (1793-1864)
R:Air
O:England179
A:Northamptonshire
N:
N:No TS given: 2/4 adde
Z:vmp.P. Headford
K:D
F/G/|A2A AFA|d2ef2f|ecA ABA|G3F2F/G/|!
A2A AFA|d2ef2f|ecA B2c|d3d2:|!
|:d/e/|f2f def|g2ge2c|d2A ABA|G3F2F/G/|!
A2A AFA|d2ef2f|ecAB2cd3d2:|]
W:Song text exists. See Deacon.|
